polaris-icons/icons/new-icons/FeaturedContentMajor.svg

<svg width="20" height="20" viewBox="0 0 20 20" fill="none" xmlns="http://www.w3.org/2000/svg">
<path fill-rule="evenodd" clip-rule="evenodd" d="M5.5 5.25C5.5 4.55964 6.05964 4 6.75 4H9V7.75C9 8.7165 9.7835 9.5 10.75 9.5H14.5V11.25C14.5 11.6642 14.8358 12 15.25 12C15.6642 12 16 11.6642 16 11.25V8.75C16 8.55109 15.921 8.36032 15.7803 8.21967L10.2803 2.71967C10.1397 2.57902 9.94891 2.5 9.75 2.5H6.75C5.23122 2.5 4 3.73122 4 5.25V14.75C4 16.2688 5.23122 17.5 6.75 17.5H8C8.41421 17.5 8.75 17.1642 8.75 16.75C8.75 16.3358 8.41421 16 8 16H6.75C6.05964 16 5.5 15.4404 5.5 14.75V5.25ZM13.4393 8L10.5 5.06066V7.75C10.5 7.88807 10.6119 8 10.75 8H13.4393ZM11.2116 14.4638C11.5029 14.1787 11.9819 14.1787 12.2732 14.4638L12.7255 14.9062C13.017 15.1914 13.483 15.1914 13.7745 14.9062L14.2268 14.4638C14.5181 14.1787 14.9971 14.1787 15.2884 14.4638C15.5705 14.7398 15.5705 15.1804 15.2884 15.4565L13.25 17.4508L11.2116 15.4565C10.9295 15.1804 10.9295 14.7398 11.2116 14.4638ZM13.25 13.3239C12.3718 12.5368 11.0133 12.5593 10.1626 13.3916C9.27913 14.2559 9.27913 15.6643 10.1626 16.5287L12.3758 18.694C12.8617 19.1693 13.6383 19.1693 14.1242 18.694L16.3374 16.5287C17.2209 15.6643 17.2209 14.2559 16.3374 13.3916C15.4867 12.5593 14.1282 12.5368 13.25 13.3239Z" fill="#4A4A4A"/>
</svg>

<svg viewBox="0 0 20 20" xmlns="http://www.w3.org/2000/svg"><path fill-rule="evenodd" d="M5.5 5.25c0-.69.56-1.25 1.25-1.25h2.25v3.75c0 .966.784 1.75 1.75 1.75h3.75v1.75a.75.75 0 0 0 1.5 0v-2.5a.75.75 0 0 0-.22-.53l-5.5-5.5a.75.75 0 0 0-.53-.22h-3a2.75 2.75 0 0 0-2.75 2.75v9.5a2.75 2.75 0 0 0 2.75 2.75h1.25a.75.75 0 0 0 0-1.5h-1.25c-.69 0-1.25-.56-1.25-1.25v-9.5Zm7.94 2.75-2.94-2.94v2.69c0 .138.112.25.25.25h2.69Zm-2.228 6.464a.766.766 0 0 1 1.061 0l.453.442a.75.75 0 0 0 1.048 0l.453-.442a.766.766 0 0 1 1.061 0 .688.688 0 0 1 0 .992l-2.038 1.995-2.038-1.995a.688.688 0 0 1 0-.992Zm2.038-1.14a2.266 2.266 0 0 0-3.087.068 2.188 2.188 0 0 0 0 3.137l2.213 2.165a1.25 1.25 0 0 0 1.748 0l2.213-2.165a2.188 2.188 0 0 0 0-3.137 2.266 2.266 0 0 0-3.087-.068Z" fill="#5C5F62"/></svg>
